X:19074
T:Xiraldilla (CT 394)
R:Xiraldilla
C:Tradicional
S:Msica Tradicional Asturiana, (C) Tello & Tito. Asturies, 2001.
S:http://pagina.de/MusTradAst <telloytito@asturies.org>
N:Xiraldilla, transcrita en Avils.
O:Avils
A:Asturies
Z:Cancioneru de Torner 394
M:2/4
L:1/8
Q:1/4=160
W:Ai! Ins,
W:qu bonita es,
W:que disimuladito
W:tiene su querer.
W:
W:Ai! vida ma,
W:que as debe de ser.
K:G
|d3 c|A2 cd|e2 d2|B2 z2|
dd/d/ de|dB cd|e2 d2|A2 z2|
f2 f>f|g2 fe|de dc|B2 ||
